X:349
T: Xiangei lingxiu xiangei dang
N: C1850
O: China,Qinghai Haixi
S: I, 218]
N: Menggu
R: Shange]
M: 2/4
L: 1/16
K: D
f8- | f8 |
B2B2B2A2 | B3AF2F2 | A3AB2e2 | d8- | d6e2 |
BABdA4- | A8 | A3Bd4 | F2EFA2F2 | E3FE4 |
f3edef2 | BdBdFFA2 | F3AB2d2 | A2ABA4 |
F4d4- | d6e2 | F2A4FE | D3EFEFA | B,8- | B,4
E2F2 | A2F4AB | d6D2 | E8- | E8

@@@ Tune index: 6904
